style-guide/assets/xd-icons-message.svg

<svg viewBox="0 0 24 24" xmlns="http://www.w3.org/2000/svg" xmlns:xlink="http://www.w3.org/1999/xlink">
  <path d="M18 10H6a1 1 0 1 0 0 2h12a1 1 0 1 0 0-2m4 2c0 1.654-1.346 3-3 3h-6a.997.997 0 0 0-.707.293L7 20.586V16a1 1 0 0 0-1-1H5c-1.654 0-3-1.346-3-3V5c0-1.654 1.346-3 3-3h14c1.654 0 3 1.346 3 3v7zM19 0H5C2.243 0 0 2.243 0 5v7c0 2.757 2.243 5 5 5v6a1 1 0 0 0 1.707.707L13.414 17H19c2.757 0 5-2.243 5-5V5c0-2.757-2.243-5-5-5zm-1 5H6a1 1 0 1 0 0 2h12a1 1 0 1 0 0-2"/>
</svg>

<?xml version="1.0" encoding="UTF-8"?>
<svg width="24px" height="24px" viewBox="0 0 24 24" version="1.1" xmlns="http://www.w3.org/2000/svg" xmlns:xlink="http://www.w3.org/1999/xlink">
    <!-- Generator: Sketch 51.3 (57544) - http://www.bohemiancoding.com/sketch -->
    <title>bubble</title>
    <desc>Created with Sketch.</desc>
    <defs>
        <path d="M18,10 L6,10 C5.448,10 5,10.447 5,11 C5,11.553 5.448,12 6,12 L18,12 C18.552,12 19,11.553 19,11 C19,10.447 18.552,10 18,10 M22,12 C22,13.654 20.654,15 19,15 L13,15 C12.735,15 12.48,15.105 12.293,15.293 L7,20.586 L7,16 C7,15.447 6.552,15 6,15 L5,15 C3.346,15 2,13.654 2,12 L2,5 C2,3.346 3.346,2 5,2 L19,2 C20.654,2 22,3.346 22,5 L22,12 Z M19,0 L5,0 C2.243,0 0,2.243 0,5 L0,12 C0,14.757 2.243,17 5,17 L5,23 C5,23.404 5.244,23.77 5.617,23.924 C5.741,23.975 5.871,24 6,24 C6.26,24 6.516,23.898 6.707,23.707 L13.414,17 L19,17 C21.757,17 24,14.757 24,12 L24,5 C24,2.243 21.757,0 19,0 Z M18,5 L6,5 C5.448,5 5,5.447 5,6 C5,6.553 5.448,7 6,7 L18,7 C18.552,7 19,6.553 19,6 C19,5.447 18.552,5 18,5" id="path-1"></path>
    </defs>
    <g id="bubble" stroke="none" stroke-width="1" fill="none" fill-rule="evenodd">
        <mask id="mask-2" fill="white">
            <use xlink:href="#path-1"></use>
        </mask>
        <use id="icons/24px/Message-Bubble" fill="#000000" xlink:href="#path-1"></use>
    </g>
</svg>
